X: 28883
T: Mystery Inch, The
R: jig
M: 6/8
K: Gmajor
EBg fdB|dee dBA|GAB dBG|ABG BFG|
EBg fdB|d2d dBA|GAB dgf|1 efd Bde:|2 efd BAG||
EGB AGD|BAG EGB|ABd d3|edA BGE|
EGB AGE|DGB AGE|FGd faf|dBd eBA|
GED EBA|GED BAG|EGB d3|edA BGE|
EGB AGE|DGB AGE|FGd faf|dBd eBA||

